images/149784.svg

<?xml version="1.0" encoding="UTF-8"?>
<svg xmlns="http://www.w3.org/2000/svg" xmlns:xlink="http://www.w3.org/1999/xlink" width="300pt" height="300pt" viewBox="0 0 300 300" version="1.1">
<defs>
<g>
<symbol overflow="visible" id="glyph0-0">
<path style="stroke:none;" d="M 0.453125 1.59375 L 0.453125 -6.34375 L 4.953125 -6.34375 L 4.953125 1.59375 Z M 0.953125 1.09375 L 4.453125 1.09375 L 4.453125 -5.84375 L 0.953125 -5.84375 Z M 0.953125 1.09375 "/>
</symbol>
<symbol overflow="visible" id="glyph0-1">
<path style="stroke:none;" d="M 3.546875 -5.953125 C 2.898438 -5.953125 2.382812 -5.710938 2 -5.234375 C 1.625 -4.753906 1.4375 -4.101562 1.4375 -3.28125 C 1.4375 -2.445312 1.625 -1.789062 2 -1.3125 C 2.382812 -0.832031 2.898438 -0.59375 3.546875 -0.59375 C 4.191406 -0.59375 4.703125 -0.832031 5.078125 -1.3125 C 5.453125 -1.789062 5.640625 -2.445312 5.640625 -3.28125 C 5.640625 -4.101562 5.453125 -4.753906 5.078125 -5.234375 C 4.703125 -5.710938 4.191406 -5.953125 3.546875 -5.953125 Z M 3.546875 -6.6875 C 4.460938 -6.6875 5.195312 -6.375 5.75 -5.75 C 6.300781 -5.132812 6.578125 -4.3125 6.578125 -3.28125 C 6.578125 -2.238281 6.300781 -1.410156 5.75 -0.796875 C 5.195312 -0.179688 4.460938 0.125 3.546875 0.125 C 2.617188 0.125 1.878906 -0.179688 1.328125 -0.796875 C 0.773438 -1.410156 0.5 -2.238281 0.5 -3.28125 C 0.5 -4.3125 0.773438 -5.132812 1.328125 -5.75 C 1.878906 -6.375 2.617188 -6.6875 3.546875 -6.6875 Z M 3.546875 -6.6875 "/>
</symbol>
<symbol overflow="visible" id="glyph0-2">
<path style="stroke:none;" d="M 0.890625 -6.5625 L 1.765625 -6.5625 L 1.765625 -3.875 L 5 -3.875 L 5 -6.5625 L 5.890625 -6.5625 L 5.890625 0 L 5 0 L 5 -3.125 L 1.765625 -3.125 L 1.765625 0 L 0.890625 0 Z M 0.890625 -6.5625 "/>
</symbol>
<symbol overflow="visible" id="glyph0-3">
<path style="stroke:none;" d="M 0.890625 -6.5625 L 2.078125 -6.5625 L 4.984375 -1.078125 L 4.984375 -6.5625 L 5.84375 -6.5625 L 5.84375 0 L 4.65625 0 L 1.75 -5.484375 L 1.75 0 L 0.890625 0 Z M 0.890625 -6.5625 "/>
</symbol>
<symbol overflow="visible" id="glyph1-0">
<path style="stroke:none;" d="M 0.40625 1.421875 L 0.40625 -5.640625 L 4.40625 -5.640625 L 4.40625 1.421875 Z M 0.84375 0.96875 L 3.953125 0.96875 L 3.953125 -5.1875 L 0.84375 -5.1875 Z M 0.84375 0.96875 "/>
</symbol>
<symbol overflow="visible" id="glyph1-1">
<path style="stroke:none;" d="M 1.53125 -0.671875 L 4.296875 -0.671875 L 4.296875 0 L 0.59375 0 L 0.59375 -0.671875 C 0.882812 -0.972656 1.289062 -1.382812 1.8125 -1.90625 C 2.332031 -2.4375 2.65625 -2.773438 2.78125 -2.921875 C 3.039062 -3.203125 3.21875 -3.441406 3.3125 -3.640625 C 3.414062 -3.835938 3.46875 -4.03125 3.46875 -4.21875 C 3.46875 -4.53125 3.359375 -4.785156 3.140625 -4.984375 C 2.921875 -5.179688 2.640625 -5.28125 2.296875 -5.28125 C 2.046875 -5.28125 1.78125 -5.234375 1.5 -5.140625 C 1.226562 -5.054688 0.9375 -4.925781 0.625 -4.75 L 0.625 -5.546875 C 0.945312 -5.679688 1.242188 -5.78125 1.515625 -5.84375 C 1.796875 -5.90625 2.050781 -5.9375 2.28125 -5.9375 C 2.882812 -5.9375 3.363281 -5.785156 3.71875 -5.484375 C 4.082031 -5.179688 4.265625 -4.78125 4.265625 -4.28125 C 4.265625 -4.039062 4.21875 -3.8125 4.125 -3.59375 C 4.03125 -3.375 3.867188 -3.117188 3.640625 -2.828125 C 3.566406 -2.753906 3.351562 -2.535156 3 -2.171875 C 2.65625 -1.816406 2.164062 -1.316406 1.53125 -0.671875 Z M 1.53125 -0.671875 "/>
</symbol>
</g>
</defs>
<g id="surface46325">
<rect x="0" y="0" width="300" height="300" style="fill:rgb(100%,100%,100%);fill-opacity:1;stroke:none;"/>
<path style="fill:none;stroke-width:1.2;stroke-linecap:butt;stroke-linejoin:miter;stroke:rgb(0%,0%,0%);stroke-opacity:1;stroke-miterlimit:10;" d="M 35.25 146.605469 L 56.972656 135.09375 "/>
<path style="fill:none;stroke-width:1.2;stroke-linecap:butt;stroke-linejoin:miter;stroke:rgb(0%,0%,0%);stroke-opacity:1;stroke-miterlimit:10;" d="M 56.972656 135.09375 L 77.800781 148.148438 "/>
<path style="fill:none;stroke-width:1.2;stroke-linecap:butt;stroke-linejoin:miter;stroke:rgb(0%,0%,0%);stroke-opacity:1;stroke-miterlimit:10;" d="M 77.800781 148.148438 L 99.523438 136.636719 "/>
<path style="fill:none;stroke-width:1.2;stroke-linecap:butt;stroke-linejoin:miter;stroke:rgb(0%,0%,0%);stroke-opacity:1;stroke-miterlimit:10;" d="M 99.523438 136.636719 L 120.351562 149.691406 "/>
<path style="fill:none;stroke-width:1.2;stroke-linecap:butt;stroke-linejoin:miter;stroke:rgb(0%,0%,0%);stroke-opacity:1;stroke-miterlimit:10;" d="M 120.351562 149.691406 L 142.074219 138.179688 "/>
<path style="fill:none;stroke-width:1;stroke-linecap:butt;stroke-linejoin:miter;stroke:rgb(0%,0%,0%);stroke-opacity:1;stroke-miterlimit:10;" d="M 162.902344 151.234375 L 162.902344 151.234375 M 160.675781 149.222656 L 160.121094 150.105469 M 158.449219 147.210938 L 157.34375 148.980469 M 156.222656 145.203125 L 154.5625 147.851562 M 153.996094 143.191406 L 151.78125 146.726562 M 151.769531 141.179688 L 149.003906 145.597656 M 149.542969 139.167969 L 146.222656 144.46875 M 147.316406 137.160156 L 143.441406 143.34375 M 145.089844 135.148438 L 140.660156 142.214844 M 144.375 134.503906 L 139.769531 141.855469 "/>
<path style="fill:none;stroke-width:1.2;stroke-linecap:butt;stroke-linejoin:miter;stroke:rgb(0%,0%,0%);stroke-opacity:1;stroke-miterlimit:10;" d="M 162.902344 151.234375 L 162.011719 175.800781 "/>
<path style="fill:none;stroke-width:1.2;stroke-linecap:butt;stroke-linejoin:miter;stroke:rgb(0%,0%,0%);stroke-opacity:1;stroke-miterlimit:10;" d="M 162.902344 151.234375 L 173.761719 145.476562 "/>
<path style="fill:none;stroke-width:1.2;stroke-linecap:butt;stroke-linejoin:miter;stroke:rgb(0%,0%,100%);stroke-opacity:1;stroke-miterlimit:10;" d="M 173.761719 145.476562 L 184.625 139.722656 "/>
<path style="fill:none;stroke-width:1;stroke-linecap:butt;stroke-linejoin:miter;stroke:rgb(0%,0%,0%);stroke-opacity:1;stroke-miterlimit:10;" d="M 162.011719 175.800781 L 162.011719 175.800781 M 159.15625 176.722656 L 159.648438 177.644531 M 156.304688 177.644531 L 157.28125 179.488281 M 153.449219 178.570312 L 154.914062 181.332031 M 150.59375 179.492188 L 152.546875 183.175781 M 147.738281 180.414062 L 150.179688 185.019531 M 144.886719 181.335938 L 147.816406 186.867188 M 142.03125 182.261719 L 145.449219 188.710938 M 139.175781 183.183594 L 143.082031 190.554688 M 138.261719 183.480469 L 142.324219 191.144531 "/>
<path style="fill:none;stroke-width:1.2;stroke-linecap:butt;stroke-linejoin:miter;stroke:rgb(0%,0%,0%);stroke-opacity:1;stroke-miterlimit:10;" d="M 162.011719 175.800781 L 172.429688 182.328125 "/>
<path style="fill:none;stroke-width:1.2;stroke-linecap:butt;stroke-linejoin:miter;stroke:rgb(100%,0%,0%);stroke-opacity:1;stroke-miterlimit:10;" d="M 172.429688 182.328125 L 182.84375 188.855469 "/>
<path style=" stroke:none;fill-rule:nonzero;fill:rgb(100%,100%,100%);fill-opacity:1;" d="M 175.84375 183.355469 L 190.84375 183.355469 L 190.84375 194.355469 L 175.84375 194.355469 Z M 175.84375 183.355469 "/>
<g style="fill:rgb(100%,0%,0%);fill-opacity:1;">
  <use xlink:href="#glyph0-1" x="175.84375" y="192.018555"/>
  <use xlink:href="#glyph0-2" x="183.185547" y="192.018555"/>
</g>
<path style="fill:none;stroke-width:1.2;stroke-linecap:butt;stroke-linejoin:miter;stroke:rgb(0%,0%,100%);stroke-opacity:1;stroke-miterlimit:10;" d="M 184.625 139.722656 L 186.351562 127.550781 "/>
<path style="fill:none;stroke-width:1.2;stroke-linecap:butt;stroke-linejoin:miter;stroke:rgb(0%,0%,0%);stroke-opacity:1;stroke-miterlimit:10;" d="M 186.351562 127.550781 L 188.078125 115.382812 "/>
<path style="fill:none;stroke-width:1.2;stroke-linecap:butt;stroke-linejoin:miter;stroke:rgb(0%,0%,0%);stroke-opacity:1;stroke-miterlimit:10;" d="M 206.703125 150.527344 L 195.664062 145.125 "/>
<path style="fill:none;stroke-width:1.2;stroke-linecap:butt;stroke-linejoin:miter;stroke:rgb(0%,0%,100%);stroke-opacity:1;stroke-miterlimit:10;" d="M 195.664062 145.125 L 184.625 139.722656 "/>
<path style=" stroke:none;fill-rule:nonzero;fill:rgb(100%,100%,100%);fill-opacity:1;" d="M 181.625 134.222656 L 188.625 134.222656 L 188.625 145.222656 L 181.625 145.222656 Z M 181.625 134.222656 "/>
<g style="fill:rgb(0%,0%,100%);fill-opacity:1;">
  <use xlink:href="#glyph0-3" x="181.625" y="142.885742"/>
</g>
<path style="fill:none;stroke-width:1.2;stroke-linecap:butt;stroke-linejoin:miter;stroke:rgb(0%,0%,0%);stroke-opacity:1;stroke-miterlimit:10;" d="M 188.078125 115.382812 L 200.183594 113.261719 "/>
<path style="fill:none;stroke-width:1.2;stroke-linecap:butt;stroke-linejoin:miter;stroke:rgb(0%,0%,100%);stroke-opacity:1;stroke-miterlimit:10;" d="M 200.183594 113.261719 L 212.292969 111.144531 "/>
<path style="fill:none;stroke-width:1.2;stroke-linecap:butt;stroke-linejoin:miter;stroke:rgb(0%,0%,0%);stroke-opacity:1;stroke-miterlimit:10;" d="M 191.496094 120.65625 L 201.183594 118.960938 "/>
<path style="fill:none;stroke-width:1.2;stroke-linecap:butt;stroke-linejoin:miter;stroke:rgb(0%,0%,100%);stroke-opacity:1;stroke-miterlimit:10;" d="M 201.183594 118.960938 L 210.867188 117.265625 "/>
<path style="fill:none;stroke-width:1.2;stroke-linecap:butt;stroke-linejoin:miter;stroke:rgb(0%,0%,100%);stroke-opacity:1;stroke-miterlimit:10;" d="M 212.292969 111.144531 L 218.046875 122.003906 "/>
<path style="fill:none;stroke-width:1.2;stroke-linecap:butt;stroke-linejoin:miter;stroke:rgb(0%,0%,0%);stroke-opacity:1;stroke-miterlimit:10;" d="M 218.046875 122.003906 L 223.804688 132.867188 "/>
<path style=" stroke:none;fill-rule:nonzero;fill:rgb(100%,100%,100%);fill-opacity:1;" d="M 209.292969 105.644531 L 216.292969 105.644531 L 216.292969 116.644531 L 209.292969 116.644531 Z M 209.292969 105.644531 "/>
<g style="fill:rgb(0%,0%,100%);fill-opacity:1;">
  <use xlink:href="#glyph0-3" x="209.292969" y="114.307617"/>
</g>
<path style="fill:none;stroke-width:1.2;stroke-linecap:butt;stroke-linejoin:miter;stroke:rgb(0%,0%,0%);stroke-opacity:1;stroke-miterlimit:10;" d="M 223.804688 132.867188 L 206.703125 150.527344 "/>
<path style="fill:none;stroke-width:1.2;stroke-linecap:butt;stroke-linejoin:miter;stroke:rgb(0%,0%,0%);stroke-opacity:1;stroke-miterlimit:10;" d="M 226.25 138.65625 L 212.570312 152.785156 "/>
<path style="fill:none;stroke-width:1.2;stroke-linecap:butt;stroke-linejoin:miter;stroke:rgb(0%,0%,0%);stroke-opacity:1;stroke-miterlimit:10;" d="M 247.648438 138.84375 L 223.804688 132.867188 "/>
<path style="fill:none;stroke-width:1.2;stroke-linecap:butt;stroke-linejoin:miter;stroke:rgb(0%,0%,0%);stroke-opacity:1;stroke-miterlimit:10;" d="M 206.703125 150.527344 L 210.078125 162.347656 "/>
<path style="fill:none;stroke-width:1.2;stroke-linecap:butt;stroke-linejoin:miter;stroke:rgb(0%,0%,100%);stroke-opacity:1;stroke-miterlimit:10;" d="M 210.078125 162.347656 L 213.449219 174.167969 "/>
<path style="fill:none;stroke-width:1.2;stroke-linecap:butt;stroke-linejoin:miter;stroke:rgb(0%,0%,100%);stroke-opacity:1;stroke-miterlimit:10;" d="M 213.449219 174.167969 L 225.371094 177.15625 "/>
<path style="fill:none;stroke-width:1.2;stroke-linecap:butt;stroke-linejoin:miter;stroke:rgb(0%,0%,0%);stroke-opacity:1;stroke-miterlimit:10;" d="M 225.371094 177.15625 L 237.292969 180.144531 "/>
<path style="fill:none;stroke-width:1.2;stroke-linecap:butt;stroke-linejoin:miter;stroke:rgb(0%,0%,100%);stroke-opacity:1;stroke-miterlimit:10;" d="M 217.242188 169.152344 L 226.777344 171.546875 "/>
<path style="fill:none;stroke-width:1.2;stroke-linecap:butt;stroke-linejoin:miter;stroke:rgb(0%,0%,0%);stroke-opacity:1;stroke-miterlimit:10;" d="M 226.777344 171.546875 L 236.316406 173.9375 "/>
<path style=" stroke:none;fill-rule:nonzero;fill:rgb(100%,100%,100%);fill-opacity:1;" d="M 210.449219 168.667969 L 217.449219 168.667969 L 217.449219 179.667969 L 210.449219 179.667969 Z M 210.449219 168.667969 "/>
<g style="fill:rgb(0%,0%,100%);fill-opacity:1;">
  <use xlink:href="#glyph0-3" x="210.449219" y="177.331055"/>
</g>
<path style="fill:none;stroke-width:1.2;stroke-linecap:butt;stroke-linejoin:miter;stroke:rgb(0%,0%,0%);stroke-opacity:1;stroke-miterlimit:10;" d="M 237.292969 180.144531 L 245.84375 171.316406 "/>
<path style="fill:none;stroke-width:1.2;stroke-linecap:butt;stroke-linejoin:miter;stroke:rgb(0%,0%,100%);stroke-opacity:1;stroke-miterlimit:10;" d="M 245.84375 171.316406 L 254.394531 162.484375 "/>
<path style="fill:none;stroke-width:1.2;stroke-linecap:butt;stroke-linejoin:miter;stroke:rgb(0%,0%,100%);stroke-opacity:1;stroke-miterlimit:10;" d="M 254.394531 162.484375 L 251.023438 150.664062 "/>
<path style="fill:none;stroke-width:1.2;stroke-linecap:butt;stroke-linejoin:miter;stroke:rgb(0%,0%,0%);stroke-opacity:1;stroke-miterlimit:10;" d="M 251.023438 150.664062 L 247.648438 138.84375 "/>
<path style="fill:none;stroke-width:1.2;stroke-linecap:butt;stroke-linejoin:miter;stroke:rgb(0%,0%,100%);stroke-opacity:1;stroke-miterlimit:10;" d="M 248.15625 161.707031 L 245.460938 152.25 "/>
<path style="fill:none;stroke-width:1.2;stroke-linecap:butt;stroke-linejoin:miter;stroke:rgb(0%,0%,0%);stroke-opacity:1;stroke-miterlimit:10;" d="M 245.460938 152.25 L 242.761719 142.796875 "/>
<path style=" stroke:none;fill-rule:nonzero;fill:rgb(100%,100%,100%);fill-opacity:1;" d="M 251.394531 156.984375 L 258.394531 156.984375 L 258.394531 167.984375 L 251.394531 167.984375 Z M 251.394531 156.984375 "/>
<g style="fill:rgb(0%,0%,100%);fill-opacity:1;">
  <use xlink:href="#glyph0-3" x="251.394531" y="165.647461"/>
</g>
<path style="fill:none;stroke-width:1.2;stroke-linecap:butt;stroke-linejoin:miter;stroke:rgb(0%,0%,0%);stroke-opacity:1;stroke-miterlimit:10;" d="M 247.648438 138.84375 L 256.199219 130.015625 "/>
<path style="fill:none;stroke-width:1.2;stroke-linecap:butt;stroke-linejoin:miter;stroke:rgb(0%,0%,100%);stroke-opacity:1;stroke-miterlimit:10;" d="M 256.199219 130.015625 L 264.75 121.183594 "/>
<path style=" stroke:none;fill-rule:nonzero;fill:rgb(100%,100%,100%);fill-opacity:1;" d="M 255.75 113.183594 L 274.75 113.183594 L 274.75 129.183594 L 255.75 129.183594 Z M 255.75 113.183594 "/>
<g style="fill:rgb(0%,0%,100%);fill-opacity:1;">
  <use xlink:href="#glyph0-3" x="255.75" y="121.84668"/>
  <use xlink:href="#glyph0-2" x="262.727539" y="121.84668"/>
</g>
<g style="fill:rgb(0%,0%,100%);fill-opacity:1;">
  <use xlink:href="#glyph1-1" x="269.742188" y="126.729492"/>
</g>
</g>
</svg>

<svg xmlns="http://www.w3.org/2000/svg" xmlns:xlink="http://www.w3.org/1999/xlink" width="300pt" height="300pt" viewBox="0 0 300 300"><defs><symbol overflow="visible"><path d="M.453 1.594v-7.938h4.5v7.938zm.5-.5h3.5v-6.938h-3.5zm0 0"/></symbol><symbol overflow="visible" id="a"><path d="M3.547-5.953c-.65 0-1.164.242-1.547.72-.375.48-.563 1.13-.563 1.952 0 .835.188 1.49.563 1.967.383.48.898.72 1.547.72.644 0 1.156-.24 1.53-.72.376-.476.564-1.132.564-1.968 0-.822-.187-1.474-.562-1.954-.375-.477-.887-.72-1.53-.72zm0-.734c.914 0 1.648.312 2.203.937.55.617.828 1.438.828 2.47 0 1.042-.277 1.87-.828 2.483-.555.617-1.29.922-2.203.922-.93 0-1.668-.305-2.22-.922C.774-1.41.5-2.237.5-3.28c0-1.033.273-1.853.828-2.47.55-.625 1.29-.938 2.22-.938zm0 0"/></symbol><symbol overflow="visible" id="b"><path d="M.89-6.563h.876v2.688H5v-2.688h.89V0H5v-3.125H1.766V0H.89zm0 0"/></symbol><symbol overflow="visible" id="c"><path d="M.89-6.563H2.08l2.906 5.485v-5.484h.86V0H4.656L1.75-5.484V0H.89zm0 0"/></symbol><symbol overflow="visible"><path d="M.406 1.422V-5.64h4V1.42zM.844.97h3.11v-6.157H.843zm0 0"/></symbol><symbol overflow="visible" id="d"><path d="M1.53-.672h2.767V0H.594v-.672c.29-.3.695-.71 1.22-1.234.518-.532.842-.867.967-1.016.26-.28.44-.52.533-.72.1-.194.156-.39.156-.577 0-.31-.11-.565-.33-.764-.218-.196-.5-.297-.843-.297-.25 0-.516.046-.797.14-.273.085-.563.214-.875.39v-.797c.32-.133.617-.234.89-.297.282-.062.536-.093.766-.093.603 0 1.083.152 1.44.453.362.304.546.703.546 1.203 0 .24-.047.468-.14.686-.095.22-.26.477-.485.766-.074.074-.288.293-.64.656-.344.356-.836.856-1.47 1.5zm0 0"/></symbol></defs><g><path fill="#fff" d="M0 0h300v300H0z"/><path d="M35.25 146.605l21.723-11.51M56.973 135.094L77.8 148.148M77.8 148.148l21.723-11.51M99.523 136.637l20.83 13.054M120.352 149.69l21.722-11.51" stroke-width="1.2" stroke="#000" stroke-miterlimit="10" fill="none"/><path d="M162.902 151.234m-2.226-2.01l-.555.88m-1.67-2.893l-1.106 1.77m-1.12-3.777l-1.66 2.65m-.568-4.662l-2.215 3.537m-.01-5.547l-2.766 4.418m.54-6.43l-3.32 5.3m1.092-7.308l-3.875 6.184m1.65-8.196l-4.43 7.067m3.715-7.71l-4.605 7.35" stroke="#000" stroke-miterlimit="10" fill="none"/><path d="M162.902 151.234l-.89 24.567M162.902 151.234l10.86-5.757" stroke-width="1.2" stroke="#000" stroke-miterlimit="10" fill="none"/><path d="M173.762 145.477l10.863-5.754" stroke-width="1.2" stroke="#00f" stroke-miterlimit="10" fill="none"/><path d="M162.012 175.8m-2.856.923l.492.922m-3.343 0l.976 1.843m-3.83-.918l1.464 2.762m-4.32-1.84l1.953 3.684m-4.81-2.762l2.443 4.606m-5.293-3.684l2.93 5.53m-5.786-4.604l3.42 6.45m-6.274-5.528l3.906 7.37m-4.82-7.074l4.062 7.665" stroke="#000" stroke-miterlimit="10" fill="none"/><path d="M162.012 175.8l10.418 6.528" stroke-width="1.2" stroke="#000" stroke-miterlimit="10" fill="none"/><path d="M172.43 182.328l10.414 6.527" stroke-width="1.2" stroke="#f00" stroke-miterlimit="10" fill="none"/><path d="M175.844 183.355h15v11h-15zm0 0" fill="#fff"/><g fill="#f00"><use xlink:href="#a" x="175.844" y="192.019"/><use xlink:href="#b" x="183.186" y="192.019"/></g><path d="M184.625 139.723l1.727-12.172" stroke-width="1.2" stroke="#00f" stroke-miterlimit="10" fill="none"/><path d="M186.352 127.55l1.726-12.167M206.703 150.527l-11.04-5.402" stroke-width="1.2" stroke="#000" stroke-miterlimit="10" fill="none"/><path d="M195.664 145.125l-11.04-5.402" stroke-width="1.2" stroke="#00f" stroke-miterlimit="10" fill="none"/><path d="M181.625 134.223h7v11h-7zm0 0" fill="#fff"/><use xlink:href="#c" x="181.625" y="142.886" fill="#00f"/><path d="M188.078 115.383l12.106-2.12" stroke-width="1.2" stroke="#000" stroke-miterlimit="10" fill="none"/><path d="M200.184 113.262l12.11-2.117" stroke-width="1.2" stroke="#00f" stroke-miterlimit="10" fill="none"/><path d="M191.496 120.656l9.688-1.695" stroke-width="1.2" stroke="#000" stroke-miterlimit="10" fill="none"/><path d="M201.184 118.96l9.683-1.694M212.293 111.145l5.754 10.86" stroke-width="1.2" stroke="#00f" stroke-miterlimit="10" fill="none"/><path d="M218.047 122.004l5.758 10.863" stroke-width="1.2" stroke="#000" stroke-miterlimit="10" fill="none"/><path d="M209.293 105.645h7v11h-7zm0 0" fill="#fff"/><use xlink:href="#c" x="209.293" y="114.308" fill="#00f"/><path d="M223.805 132.867l-17.102 17.66M226.25 138.656l-13.68 14.13M247.648 138.844l-23.843-5.977M206.703 150.527l3.375 11.82" stroke-width="1.2" stroke="#000" stroke-miterlimit="10" fill="none"/><path d="M210.078 162.348l3.37 11.82M213.45 174.168l11.92 2.988" stroke-width="1.2" stroke="#00f" stroke-miterlimit="10" fill="none"/><path d="M225.37 177.156l11.923 2.99" stroke-width="1.2" stroke="#000" stroke-miterlimit="10" fill="none"/><path d="M217.242 169.152l9.535 2.395" stroke-width="1.2" stroke="#00f" stroke-miterlimit="10" fill="none"/><path d="M226.777 171.547l9.54 2.39" stroke-width="1.2" stroke="#000" stroke-miterlimit="10" fill="none"/><path d="M210.45 168.668h7v11h-7zm0 0" fill="#fff"/><use xlink:href="#c" x="210.449" y="177.331" fill="#00f"/><path d="M237.293 180.145l8.55-8.83" stroke-width="1.2" stroke="#000" stroke-miterlimit="10" fill="none"/><path d="M245.844 171.316l8.55-8.832M254.395 162.484l-3.372-11.82" stroke-width="1.2" stroke="#00f" stroke-miterlimit="10" fill="none"/><path d="M251.023 150.664l-3.375-11.82" stroke-width="1.2" stroke="#000" stroke-miterlimit="10" fill="none"/><path d="M248.156 161.707l-2.695-9.457" stroke-width="1.2" stroke="#00f" stroke-miterlimit="10" fill="none"/><path d="M245.46 152.25l-2.698-9.453" stroke-width="1.2" stroke="#000" stroke-miterlimit="10" fill="none"/><path d="M251.395 156.984h7v11h-7zm0 0" fill="#fff"/><use xlink:href="#c" x="251.395" y="165.647" fill="#00f"/><path d="M247.648 138.844l8.55-8.828" stroke-width="1.2" stroke="#000" stroke-miterlimit="10" fill="none"/><path d="M256.2 130.016l8.55-8.832" stroke-width="1.2" stroke="#00f" stroke-miterlimit="10" fill="none"/><path d="M255.75 113.184h19v16h-19zm0 0" fill="#fff"/><g fill="#00f"><use xlink:href="#c" x="255.75" y="121.847"/><use xlink:href="#b" x="262.728" y="121.847"/></g><use xlink:href="#d" x="269.742" y="126.729" fill="#00f"/></g></svg>
